{"type":"map","version":"1.10","tiledversion":"1.11.0","orientation":"orthogonal","renderorder":"right-down","width":20,"height":10,"tilewidth":16,"tileheight":16,"infinite":false,"nextlayerid":6,"nextobjectid":8,"properties":[{"name":"title","type":"string","value":"coins"}],"tilesets":[{"firstgid":1,"name":"tiles","image":"tiles.png","imagewidth":112,"imageheight":16,"tilewidth":16,"tileheight":16,"columns":7,"tilecount":7,"spacing":0,"margin":0,"tiles":[{"id":0,"properties":[{"name":"solid","type":"bool","value":true}]},{"id":1,"properties":[{"name":"solid","type":"bool","value":true}]},{"id":2,"properties":[{"name":"one_way","type":"bool","value":true}]},{"id":3,"properties":[{"name":"slope","type":"int","value":1}]},{"id":4,"properties":[{"name":"slope","type":"int","value":-1}]},{"id":5,"animation":[{"tileid":5,"duration":400},{"tileid":6,"duration":400}]}]}],"layers":[{"id":1,"type":"tilelayer","name":"ground","width":20,"height":10,"x":0,"y":0,"opacity":1,"visible":true,"data":[0,0,0,0,0,0,0,0,0,0,0,0,0,0,0,0,0,0,0,0,0,0,0,0,0,0,0,0,0,0,0,0,0,0,0,0,0,0,0,0,0,0,0,0,0,0,0,0,0,0,0,0,0,0,0,0,0,0,0,0,0,0,0,0,0,0,0,0,0,0,0,0,0,0,0,0,0,0,0,0,0,0,0,0,0,0,0,0,0,0,0,0,0,0,0,0,0,0,0,0,0,0,0,0,0,0,0,0,0,0,0,0,0,0,0,0,0,0,0,0,0,0,0,0,0,0,0,0,0,0,0,0,0,0,0,0,0,0,0,0,0,0,0,0,0,0,0,0,0,0,0,0,0,0,0,0,4,1,5,0,1,1,1,1,1,1,1,1,1,1,1,1,1,1,1,1,1,1,1,1,2,2,2,2,2,2,2,2,2,2,2,2,2,2,2,2,2,2,2,2]},{"id":2,"type":"tilelayer","name":"deco","width":20,"height":10,"x":0,"y":0,"opacity":1,"visible":true,"data":[0,0,0,0,0,0,0,0,0,0,0,0,0,0,0,0,0,0,0,0,0,0,0,0,0,0,0,0,0,0,0,0,0,0,0,0,0,0,0,0,0,0,0,0,0,0,0,0,0,0,0,0,0,0,0,0,0,0,0,0,0,0,0,0,0,0,0,0,0,0,0,0,0,0,0,0,0,0,0,0,0,0,0,0,0,0,0,0,0,0,0,0,0,0,0,0,0,0,0,0,0,0,0,0,0,0,0,0,0,0,0,0,0,0,0,0,0,0,0,0,0,0,0,0,0,0,0,0,0,0,0,0,0,2147483649,2147483649,0,0,0,0,0,0,0,0,0,0,0,0,0,0,0,0,0,0,0,0,0,0,0,0,0,0,0,0,0,0,0,0,0,0,0,0,0,0,0,0,0,0,0,0,0,0,0,0,0,0,0,0,0,0,0,0,0,0,0,0,0,0,0,0,0],"properties":[{"name":"solid","type":"bool","value":true}]},{"id":4,"type":"tilelayer","name":"platforms","width":20,"height":10,"x":0,"y":0,"opacity":1,"visible":true,"data":[0,0,0,0,0,0,0,0,0,0,0,0,0,0,0,0,0,0,0,0,0,0,0,0,0,0,0,0,0,0,0,0,0,0,0,0,0,0,0,0,0,0,0,0,0,0,0,0,0,0,0,0,0,0,0,0,0,0,0,0,0,0,0,0,0,0,0,0,0,0,0,0,0,0,0,0,0,0,0,0,0,0,0,0,0,0,0,0,0,0,0,0,0,0,0,0,0,0,0,0,0,0,0,0,0,0,0,0,0,0,0,0,0,0,0,0,0,0,0,0,0,0,0,0,3,3,3,0,0,0,0,0,0,0,0,0,0,0,0,0,0,0,0,0,0,0,0,0,0,0,0,0,0,0,0,0,0,0,0,0,0,0,0,0,0,0,0,0,0,0,0,0,0,0,0,0,0,0,0,0,0,0,0,0,0,0,0,0,0,0,0,0,0,0,0,0,0,0,0,0]},{"id":5,"type":"tilelayer","name":"water","width":20,"height":10,"x":0,"y":0,"opacity":1,"visible":true,"data":[0,0,0,0,0,0,0,0,0,0,0,0,0,0,0,0,0,0,0,0,0,0,0,0,0,0,0,0,0,0,0,0,0,0,0,0,0,0,0,0,0,0,0,0,0,0,0,0,0,0,0,0,0,0,0,0,0,0,0,0,0,0,0,0,0,0,0,0,0,0,0,0,0,0,0,0,0,0,0,0,0,0,0,0,0,0,0,0,0,0,0,0,0,0,0,0,0,0,0,0,0,0,0,0,0,0,0,0,0,0,0,0,0,0,0,0,0,0,0,0,0,0,0,0,0,0,0,0,0,0,0,0,0,0,0,0,0,0,0,0,6,6,6,0,0,0,0,0,0,0,0,0,0,0,0,0,0,0,0,0,0,0,0,0,0,0,0,0,0,0,0,0,0,0,0,0,0,0,0,0,0,0,0,0,0,0,0,0,0,0,0,0,0,0,0,0,0,0,0,0]},{"id":3,"type":"objectgroup","name":"spawns","objects":[{"id":1,"name":"player","type":"spawn","point":true,"x":160,"y":120,"width":0,"height":0,"rotation":0,"visible":true},{"id":2,"name":"coin0","type":"coin","point":true,"x":64.0,"y":120,"width":0,"height":0,"rotation":0,"visible":true,"properties":[{"name":"bob","type":"float","value":0.3}]},{"id":3,"name":"coin1","type":"coin","point":true,"x":102.4,"y":120,"width":0,"height":0,"rotation":0,"visible":true,"properties":[{"name":"bob","type":"float","value":0.3}]},{"id":4,"name":"coin2","type":"coin","point":true,"x":140.8,"y":120,"width":0,"height":0,"rotation":0,"visible":true,"properties":[{"name":"bob","type":"float","value":0.3}]},{"id":5,"name":"coin3","type":"coin","point":true,"x":179.2,"y":120,"width":0,"height":0,"rotation":0,"visible":true,"properties":[{"name":"bob","type":"float","value":0.3}]},{"id":6,"name":"coin4","type":"coin","point":true,"x":217.6,"y":96,"width":0,"height":0,"rotation":0,"visible":true,"properties":[{"name":"bob","type":"float","value":0.3}]},{"id":7,"name":"coin5","type":"coin","point":true,"x":256.0,"y":96,"width":0,"height":0,"rotation":0,"visible":true,"properties":[{"name":"bob","type":"float","value":0.3}]}],"opacity":1,"visible":true,"x":0,"y":0}]}